X: 27
T:Phil Murphy's
S:Altan - The Blue Idol Track 6
M:4/4
F:http://blackrosetheband.googlepages.com/ABCTUNES.ABC May 2009
R:reel
K:G
d3d dB(G2 | G)BBB AGEG | Bdde dBGA | BAAG A3c |
Bddd eddB | dedB AGEG | B2GB AGEG |1 DGGF GABc :|2 DGGF GBdc|
|:BddB (3cde ec | Bdde dBGA | BddB cdef | gedc BAGA |
Bddd eddB | dedB AG(3EFG | B2GB AGEG |1 DGGF GBdc :|2 DGGF GABc |

